src/assets/images/bene10.svg

<svg width="49" height="49" viewBox="0 0 49 49" fill="none" xmlns="http://www.w3.org/2000/svg">
<circle cx="24.025" cy="24.441" r="24.0074" fill="url(#paint0_linear_674_5)"/>
<path d="M34.9818 17H14.0908C13.7761 17.0002 13.4743 17.1164 13.2519 17.3231C13.0294 17.5297 12.9045 17.8099 12.9046 18.1021V23.6215C10.7391 23.9565 9.08203 25.7034 9.08203 27.8083C9.08334 28.9352 9.5662 30.0157 10.4247 30.8126C11.2831 31.6095 12.4471 32.0578 13.6612 32.0591C15.8571 32.0591 17.6959 30.615 18.1388 28.6979H34.9818C35.1377 28.6979 35.292 28.6694 35.436 28.6141C35.58 28.5587 35.7108 28.4775 35.821 28.3752C35.9311 28.2729 36.0185 28.1515 36.0781 28.0178C36.1378 27.8841 36.1684 27.7409 36.1684 27.5962V26.1434H38.0136C38.1695 26.1434 38.3238 26.1149 38.4678 26.0596C38.6118 26.0042 38.7427 25.9231 38.8529 25.8208C38.9631 25.7184 39.0505 25.597 39.1101 25.4633C39.1697 25.3296 39.2003 25.1863 39.2002 25.0416V20.6563C39.2002 20.5116 39.1696 20.3684 39.11 20.2348C39.0503 20.1011 38.9629 19.9797 38.8528 19.8774C38.7426 19.7751 38.6117 19.694 38.4678 19.6387C38.3238 19.5833 38.1695 19.5549 38.0136 19.5549H36.1684V18.1021C36.1684 17.9574 36.1378 17.8141 36.0782 17.6804C36.0186 17.5467 35.9312 17.4253 35.821 17.3229C35.7108 17.2206 35.58 17.1394 35.436 17.084C35.292 17.0286 35.1377 17 34.9818 17ZM13.7113 31.1303C13.0033 31.1304 12.3111 30.9357 11.7223 30.5706C11.1335 30.2056 10.6746 29.6867 10.4035 29.0795C10.1325 28.4724 10.0615 27.8042 10.1996 27.1596C10.3376 26.515 10.6785 25.9229 11.1792 25.4581C11.6798 24.9934 12.3177 24.6769 13.0122 24.5487C13.7066 24.4204 14.4264 24.4862 15.0806 24.7378C15.7347 24.9893 16.2938 25.4152 16.6871 25.9617C17.0805 26.5082 17.2904 27.1507 17.2903 27.8079C17.2903 28.689 16.9133 29.534 16.2421 30.1571C15.5709 30.7801 14.6606 31.1302 13.7113 31.1303ZM33.9076 26.8541H18.1224C17.9533 26.1787 17.6091 25.5518 17.1198 25.0278C16.6304 24.5039 16.0108 24.0986 15.3145 23.8473V19.0326H33.9076V26.8541Z" fill="white"/>
<path d="M10.1289 27.8094C10.129 28.4666 10.339 29.1089 10.7323 29.6553C11.1257 30.2016 11.6848 30.6275 12.3388 30.8789C12.9929 31.1304 13.7126 31.1962 14.407 31.068C15.1013 30.9398 15.7391 30.6234 16.2398 30.1587C16.7404 29.6941 17.0814 29.1021 17.2195 28.4576C17.3577 27.8131 17.2869 27.1451 17.0161 26.5379C16.7452 25.9308 16.2865 25.4118 15.698 25.0466C15.1094 24.6815 14.4174 24.4865 13.7094 24.4863C13.2392 24.4862 12.7736 24.572 12.3391 24.739C11.9047 24.9059 11.5099 25.1507 11.1774 25.4593C10.8449 25.7679 10.5812 26.1343 10.4013 26.5375C10.2214 26.9408 10.1288 27.373 10.1289 27.8094ZM13.7128 26.4358L15.0724 24.9586L15.0648 24.9734L15.0788 24.9586L13.8612 27.3681C13.8568 27.3768 13.8548 27.3864 13.8555 27.396C13.8562 27.4055 13.8596 27.4148 13.8653 27.4228C13.8709 27.4308 13.8788 27.4374 13.8879 27.4418C13.8971 27.4462 13.9074 27.4484 13.9177 27.4481L15.6822 27.3917H15.689L12.1867 30.6437C12.1764 30.6536 12.1625 30.6598 12.1477 30.6609C12.1329 30.662 12.1181 30.6581 12.1063 30.6498C12.0944 30.6415 12.0862 30.6294 12.0832 30.6159C12.0803 30.6024 12.0828 30.5883 12.0903 30.5764L13.5641 28.1581C13.5694 28.1494 13.5721 28.1396 13.572 28.1296C13.5719 28.1197 13.5689 28.1099 13.5634 28.1013C13.5579 28.0928 13.55 28.0857 13.5406 28.0809C13.5312 28.0761 13.5206 28.0737 13.5098 28.0739L12.3183 28.1018C12.3066 28.102 12.2949 28.0992 12.2849 28.0934C12.2748 28.0877 12.2668 28.0794 12.2617 28.0696C12.2566 28.0597 12.2547 28.0487 12.2562 28.0378C12.2577 28.027 12.2625 28.0168 12.2701 28.0084L13.7121 26.4421L13.7128 26.4358Z" fill="white"/>
<path d="M12.1886 30.6443L13.9388 29.0184L15.689 27.3924H15.6822L13.9178 27.4488C13.9074 27.4491 13.8972 27.4469 13.888 27.4425C13.8788 27.4381 13.871 27.4315 13.8653 27.4235C13.8596 27.4155 13.8563 27.4062 13.8556 27.3967C13.8549 27.3871 13.8568 27.3775 13.8612 27.3688L15.0808 24.959L15.0667 24.9738L15.0743 24.959L13.7148 26.4362V26.4414L12.2729 28.0077C12.2652 28.0161 12.2604 28.0263 12.2589 28.0371C12.2574 28.048 12.2593 28.059 12.2644 28.0689C12.2695 28.0787 12.2775 28.087 12.2876 28.0927C12.2976 28.0984 12.3093 28.1013 12.321 28.101L13.5125 28.0732C13.5233 28.073 13.5339 28.0754 13.5433 28.0802C13.5527 28.085 13.5606 28.0921 13.5661 28.1006C13.5716 28.1092 13.5746 28.1189 13.5747 28.1289C13.5748 28.1389 13.5721 28.1487 13.5668 28.1574L12.0922 30.5771C12.0848 30.589 12.0822 30.6031 12.0852 30.6166C12.0881 30.6301 12.0963 30.6422 12.1082 30.6505C12.1201 30.6588 12.1348 30.6627 12.1497 30.6616C12.1645 30.6605 12.1783 30.6543 12.1886 30.6443Z" fill="#F4815A"/>
<defs>
<linearGradient id="paint0_linear_674_5" x1="24.025" y1="0.433594" x2="24.025" y2="48.4485" gradientUnits="userSpaceOnUse">
<stop stop-color="#F4815A"/>
<stop offset="1" stop-color="#F25E53"/>
</linearGradient>
</defs>
</svg>

<svg xmlns="http://www.w3.org/2000/svg" width="49" height="49" fill="none"><circle cx="24.025" cy="24.441" r="24.007" fill="url(#a)"/><path fill="#fff" d="M34.982 17H14.09c-.315 0-.617.116-.84.323a1.06 1.06 0 0 0-.346.78v5.518c-2.166.335-3.823 2.082-3.823 4.187.001 1.127.484 2.208 1.343 3.005.858.797 2.022 1.245 3.236 1.246 2.196 0 4.035-1.444 4.478-3.361h16.843c.156 0 .31-.029.454-.084q.218-.084.385-.239a1.1 1.1 0 0 0 .257-.357q.09-.203.09-.422v-1.453h1.846c.155 0 .31-.028.454-.083q.218-.085.385-.24a1.1 1.1 0 0 0 .257-.357c.06-.133.09-.277.09-.421v-4.386c0-.144-.03-.288-.09-.421a1.1 1.1 0 0 0-.257-.358 1.2 1.2 0 0 0-.385-.238 1.3 1.3 0 0 0-.454-.084h-1.846v-1.453q0-.22-.09-.422a1.1 1.1 0 0 0-.257-.357 1.2 1.2 0 0 0-.385-.239 1.3 1.3 0 0 0-.454-.084m-21.27 14.13a3.8 3.8 0 0 1-1.99-.56 3.4 3.4 0 0 1-1.319-1.49 3.1 3.1 0 0 1-.203-1.92 3.26 3.26 0 0 1 .98-1.702 3.67 3.67 0 0 1 1.832-.91 3.84 3.84 0 0 1 2.069.19 3.54 3.54 0 0 1 1.606 1.224c.393.546.603 1.189.603 1.846a3.2 3.2 0 0 1-1.048 2.35 3.73 3.73 0 0 1-2.53.972m20.196-4.276H18.122a4.16 4.16 0 0 0-1.002-1.826 4.6 4.6 0 0 0-1.806-1.18v-4.815h18.594z"/><path fill="#fff" d="M10.129 27.81c0 .657.21 1.299.603 1.845.394.547.953.973 1.607 1.224a3.84 3.84 0 0 0 2.068.189 3.67 3.67 0 0 0 1.833-.91c.5-.464.841-1.056.98-1.7a3.1 3.1 0 0 0-.204-1.92 3.4 3.4 0 0 0-1.318-1.491 3.82 3.82 0 0 0-3.359-.308 3.6 3.6 0 0 0-1.162.72 3.3 3.3 0 0 0-.776 1.079c-.18.403-.272.835-.272 1.271m3.584-1.374 1.36-1.477-.008.014.014-.014-1.218 2.41a.05.05 0 0 0 .004.054.1.1 0 0 0 .023.019q.015.006.03.006l1.764-.056h.007l-3.502 3.252a.064.064 0 0 1-.08.006.06.06 0 0 1-.024-.034.05.05 0 0 1 .007-.04l1.474-2.418a.05.05 0 0 0 0-.057.1.1 0 0 0-.023-.02.1.1 0 0 0-.031-.007l-1.192.028a.1.1 0 0 1-.033-.009.1.1 0 0 1-.023-.023.05.05 0 0 1 .008-.062l1.442-1.566z"/><path fill="#F4815A" d="m12.189 30.644 1.75-1.626 1.75-1.626h-.007l-1.764.057a.1.1 0 0 1-.03-.007.1.1 0 0 1-.023-.018.05.05 0 0 1-.004-.055l1.22-2.41-.014.015.007-.015-1.36 1.477v.005l-1.441 1.567a.05.05 0 0 0-.008.061q.007.015.023.024.015.008.033.008l1.191-.028q.017 0 .031.007a.1.1 0 0 1 .023.02.05.05 0 0 1 0 .057l-1.474 2.42a.05.05 0 0 0-.007.04.06.06 0 0 0 .023.034.064.064 0 0 0 .08-.007"/><defs><linearGradient id="a" x1="24.025" x2="24.025" y1=".434" y2="48.449" gradientUnits="userSpaceOnUse"><stop stop-color="#F4815A"/><stop offset="1" stop-color="#F25E53"/></linearGradient></defs></svg>
